svg/Outline/chevron-forward.svg

<svg viewBox="0 0 24 24" xmlns="http://www.w3.org/2000/svg" width="24" height="24"><path d="M9.1 5.29a.9.9 0 0 1 1.21-.06l.07.06 4.97 4.97.5.52q.24.26.38.66.2.58 0 1.17l-.07.2q-.14.27-.3.45l-.51.53-4.97 4.97A.9.9 0 0 1 9.1 17.5l4.96-4.97.46-.48v-.03l-.05-.06c-.08-.1-.2-.21-.4-.42L9.1 6.56l-.07-.07a.9.9 0 0 1 .07-1.2"/></svg>

<svg viewBox="0 0 24 24" xmlns="http://www.w3.org/2000/svg" width="24" height="24"><path d="M9.1 5.29A.9 .9 0 0 1 10.31 5.23L15.85 10.78Q16.09 11.04 16.23 11.44Q16.43 12.02 16.23 12.61L16.16 12.81Q16.02 13.08 15.86 13.26L10.38 18.76A.9 .9 0 0 1 9.1 17.5L14.52 12.02L14.47 11.96C14.39 11.86 14.27 11.75 14.07 11.54L9.03 6.49A.9 .9 0 0 1 9.1 5.29"/></svg>
